;FLAVOR:Marlin
;TIME:16877
;Filament used: 12.401m
;Layer height: 0.2
;MINX:18.046
;MINY:29.977
;MINZ:0.2
;MAXX:221.446
;MAXY:124.241
;MAXZ:15
;Generated with Cura_SteamEngine 5.2.1
M140 S60
M105
M190 S60
M104 S232
M105
M109 S232
M82 ;absolute extrusion mode
; Ender 3 Custom Start G-code
G92 E0 ; Reset Extruder
G28 ; Home all axes
G1 Z2.0 F3000 ; Move Z Axis up little to prevent scratching of Heat Bed
G1 X0.1 Y20 Z0.3 F5000.0 ; Move to start position
G1 X0.1 Y200.0 Z0.3 F1500.0 E15 ; Draw the first line
G1 X0.4 Y200.0 Z0.3 F5000.0 ; Move to side a little
G1 X0.4 Y20 Z0.3 F1500.0 E30 ; Draw the second line
G92 E0 ; Reset Extruder
G1 Z2.0 F3000 ; Move Z Axis up little to prevent scratching of Heat Bed
G1 X5 Y20 Z0.3 F5000.0 ; Move over to prevent blob squish
G92 E0
G92 E0
G1 F2700 E-5
;LAYER_COUNT:75
;LAYER:0
M107
G0 F6000 X22.626 Y31.686 Z0.2
;TYPE:SKIRT
G1 F2700 E0
G1 F1200 X23.128 Y31.374 E0.01966
G1 X23.686 Y31.072 E0.04076
G1 X24.236 Y30.817 E0.06093
G1 X24.813 Y30.59 E0.08155
G1 X25.369 Y30.409 E0.101
G1 X25.958 Y30.255 E0.12124
G1 X26.552 Y30.136 E0.14139
G1 X27.19 Y30.049 E0.16281
G1 X27.786 Y30.005 E0.18269
G1 X28.086 Y29.992 E0.19267
G1 X29.042 Y29.977 E0.22448
G1 X210.636 Y29.979 E6.26432
G1 X211.443 Y29.994 E6.29116
G1 X212.033 Y30.024 E6.31081
G1 X212.629 Y30.089 E6.33075
G1 X213.237 Y30.191 E6.35126
G1 X213.857 Y30.334 E6.37242
G1 X214.423 Y30.502 E6.39206
G1 X215.008 Y30.715 E6.41276
G1 X215.581 Y30.963 E6.43353
G1 X216.15 Y31.251 E6.45474
G1 X216.642 Y31.54 E6.47372
G1 X217.148 Y31.879 E6.49398
G1 X217.635 Y32.248 E6.5143
G1 X218.119 Y32.664 E6.53552
G1 X218.548 Y33.081 E6.55542
G1 X218.969 Y33.542 E6.57619
G1 X219.356 Y34.021 E6.59667
G1 X219.72 Y34.532 E6.61754
G1 X220.042 Y35.047 E6.63774
G1 X220.347 Y35.608 E6.65898
G1 X220.593 Y36.136 E6.67835
G1 X220.822 Y36.718 E6.69915
G1 X221.016 Y37.312 E6.71994
G1 X221.175 Y37.921 E6.74087
G1 X221.291 Y38.51 E6.76084
G1 X221.374 Y39.126 E6.78151
G1 X221.415 Y39.673 E6.79975
G1 X221.429 Y39.973 E6.80974
G1 X221.446 Y40.992 E6.84364
G1 X221.444 Y78.565 E8.09332
G1 X221.431 Y79.323 E8.11854
G1 X221.399 Y79.967 E8.13998
G1 X221.331 Y80.58 E8.1605
G1 X221.229 Y81.18 E8.18074
G1 X221.091 Y81.779 E8.20118
G1 X220.928 Y82.332 E8.22036
G1 X220.714 Y82.923 E8.24127
G1 X220.467 Y83.495 E8.26199
G1 X220.191 Y84.043 E8.2824
G1 X219.577 Y85.101 E8.32308
G1 X218.258 Y87.453 E8.41277
G1 X216.998 Y89.853 E8.50293
G1 X215.831 Y92.24 E8.5913
G1 X214.715 Y94.697 E8.68105
G1 X213.675 Y97.167 E8.77019
G1 X212.707 Y99.666 E8.85933
G1 X211.628 Y102.728 E8.96731
G1 X210.821 Y105.267 E9.05592
G1 X210.077 Y107.864 E9.14577
G1 X209.419 Y110.43 E9.23388
G1 X208.819 Y113.075 E9.32408
G1 X208.199 Y116.198 E9.42998
G1 X208.088 Y116.652 E9.44553
G1 X207.932 Y117.183 E9.46394
G1 X207.721 Y117.768 E9.48462
G1 X207.466 Y118.362 E9.50612
G1 X207.173 Y118.942 E9.52773
G1 X206.892 Y119.421 E9.5462
G1 X206.548 Y119.935 E9.56677
G1 X206.153 Y120.455 E9.58849
G1 X205.733 Y120.942 E9.60988
G1 X205.324 Y121.361 E9.62936
G1 X204.865 Y121.779 E9.65001
G1 X204.413 Y122.143 E9.66931
G1 X203.92 Y122.495 E9.68946
G1 X203.389 Y122.829 E9.71032
G1 X202.817 Y123.14 E9.73198
G1 X202.285 Y123.388 E9.7515
G1 X201.705 Y123.617 E9.77224
G1 X201.118 Y123.809 E9.79278
G1 X200.503 Y123.97 E9.81392
G1 X199.902 Y124.088 E9.83429
G1 X199.315 Y124.168 E9.854
G1 X198.828 Y124.207 E9.87025
G1 X198.503 Y124.223 E9.88107
G1 X197.427 Y124.241 E9.91686
G1 X48.932 Y124.24 E14.85583
G1 X48.097 Y124.226 E14.8836
G1 X47.455 Y124.194 E14.90498
G1 X46.838 Y124.126 E14.92563
G1 X46.235 Y124.023 E14.94598
G1 X45.643 Y123.886 E14.96619
G1 X45.089 Y123.723 E14.98539
G1 X44.488 Y123.504 E15.00667
G1 X43.914 Y123.255 E15.02748
G1 X43.352 Y122.97 E15.04844
G1 X42.844 Y122.672 E15.06803
G1 X42.325 Y122.325 E15.08879
G1 X41.835 Y121.952 E15.10927
G1 X41.362 Y121.544 E15.13005
G1 X40.941 Y121.135 E15.14957
G1 X40.518 Y120.671 E15.17045
G1 X40.141 Y120.204 E15.19042
G1 X39.777 Y119.693 E15.21128
G1 X39.449 Y119.168 E15.23187
G1 X39.137 Y118.591 E15.25369
G1 X38.858 Y117.986 E15.27585
G1 X38.671 Y117.523 E15.29246
G1 X37.966 Y115.505 E15.36355
G1 X37 Y112.963 E15.454
G1 X35.988 Y110.509 E15.54229
G1 X34.886 Y108.04 E15.63222
G1 X33.727 Y105.627 E15.72125
G1 X32.513 Y103.275 E15.80928
G1 X31.193 Y100.883 E15.90015
G1 X29.846 Y98.6 E15.98832
G1 X28.417 Y96.328 E16.07759
G1 X26.922 Y94.091 E16.16708
G1 X25.366 Y91.902 E16.2564
G1 X23.772 Y89.787 E16.34449
G1 X22.075 Y87.664 E16.43489
G1 X20.782 Y86.132 E16.50156
G1 X20.128 Y85.323 E16.53616
G1 X19.754 Y84.796 E16.55766
G1 X19.44 Y84.29 E16.57746
G1 X19.14 Y83.735 E16.59845
G1 X18.886 Y83.187 E16.61854
G1 X18.659 Y82.61 E16.63916
G1 X18.478 Y82.054 E16.65861
G1 X18.324 Y81.465 E16.67886
G1 X18.205 Y80.871 E16.69901
G1 X18.118 Y80.234 E16.72039
G1 X18.074 Y79.64 E16.7402
G1 X18.061 Y79.337 E16.75029
G1 X18.046 Y78.355 E16.78295
G1 X18.048 Y40.787 E18.03247
G1 X18.063 Y39.982 E18.05925
G1 X18.092 Y39.403 E18.07853
G1 X18.155 Y38.814 E18.09823
G1 X18.255 Y38.21 E18.11859
G1 X18.4 Y37.579 E18.14013
G1 X18.579 Y36.976 E18.16105
G1 X18.802 Y36.366 E18.18265
G1 X19.039 Y35.826 E18.20226
G1 X19.315 Y35.286 E18.22244
G1 X19.624 Y34.759 E18.24275
G1 X19.983 Y34.225 E18.26416
G1 X20.338 Y33.762 E18.28356
G1 X20.722 Y33.316 E18.30314
G1 X21.128 Y32.895 E18.32259
G1 X21.608 Y32.456 E18.34422
G1 X22.108 Y32.053 E18.36558
G1 X22.626 Y31.686 E18.3867
G0 F6000 X22.837 Y32.025
G1 F1200 X23.339 Y31.713 E18.40636
G1 X23.854 Y31.435 E18.42582
G1 X24.404 Y31.18 E18.44598
G1 X24.937 Y30.971 E18.46503
G1 X25.493 Y30.79 E18.48447
G1 X26.036 Y30.648 E18.50314
G1 X26.63 Y30.529 E18.52329
G1 X27.22 Y30.448 E18.5431
G1 X27.816 Y30.404 E18.56298
G1 X28.092 Y30.392 E18.57216
G1 X29.042 Y30.377 E18.60377
G1 X210.63 Y30.379 E24.64341
G1 X211.423 Y30.393 E24.66979
G1 X212.013 Y30.423 E24.68944
G1 X212.563 Y30.483 E24.70784
G1 X213.171 Y30.585 E24.72834
G1 X213.743 Y30.717 E24.74787
G1 X214.309 Y30.885 E24.7675
G1 X214.85 Y31.082 E24.78665
G1 X215.423 Y31.33 E24.80742
G1 X215.947 Y31.596 E24.82696
G1 X216.439 Y31.885 E24.84594
G1 X216.907 Y32.198 E24.86467
G1 X217.394 Y32.567 E24.88499
G1 X217.841 Y32.951 E24.90459
G1 X218.27 Y33.368 E24.92449
G1 X218.658 Y33.793 E24.94363
G1 X219.045 Y34.272 E24.96411
G1 X219.381 Y34.744 E24.98338
G1 X219.703 Y35.259 E25.00358
G1 X219.984 Y35.777 E25.02318
G1 X220.23 Y36.305 E25.04256
G1 X220.442 Y36.842 E25.06176
G1 X220.636 Y37.436 E25.08254
G1 X220.783 Y37.998 E25.10186
G1 X220.899 Y38.587 E25.12183
G1 X220.976 Y39.156 E25.14093
G1 X221.017 Y39.703 E25.15917
G1 X221.029 Y39.979 E25.16836
G1 X221.046 Y40.992 E25.20206
G1 X221.045 Y78.559 E26.45154
G1 X221.037 Y79.132 E26.4706
G1 X220.999 Y79.947 E26.49774
G1 X220.937 Y80.513 E26.51668
G1 X220.835 Y81.113 E26.53692
G1 X220.707 Y81.666 E26.5558
G1 X220.544 Y82.219 E26.57497
G1 X220.347 Y82.765 E26.59428
G1 X220.1 Y83.337 E26.615
G1 X219.845 Y83.843 E26.63385
G1 X219.215 Y84.929 E26.67561
G1 X217.897 Y87.278 E26.76519
G1 X216.656 Y89.642 E26.85399
G1 X215.457 Y92.093 E26.94475
G1 X214.352 Y94.526 E27.03362
G1 X213.309 Y97.004 E27.12305
G1 X212.321 Y99.554 E27.214
G1 X211.259 Y102.571 E27.32038
G1 X210.429 Y105.183 E27.41154
G1 X209.702 Y107.718 E27.49925
G1 X209.024 Y110.363 E27.59007
G1 X208.43 Y112.981 E27.67936
G1 X207.807 Y116.121 E27.78583
G1 X207.704 Y116.539 E27.80015
G1 X207.548 Y117.07 E27.81856
G1 X207.354 Y117.611 E27.83767
G1 X207.099 Y118.205 E27.85917
G1 X206.828 Y118.74 E27.87912
G1 X206.547 Y119.219 E27.89759
G1 X206.229 Y119.693 E27.91657
G1 X205.834 Y120.213 E27.93829
G1 X205.447 Y120.663 E27.95803
G1 X205.038 Y121.082 E27.97751
G1 X204.614 Y121.467 E27.99656
G1 X204.162 Y121.831 E28.01586
G1 X203.707 Y122.156 E28.03446
G1 X203.176 Y122.49 E28.05532
G1 X202.648 Y122.778 E28.07533
G1 X202.116 Y123.026 E28.09485
G1 X201.58 Y123.237 E28.11401
G1 X200.993 Y123.429 E28.13455
G1 X200.426 Y123.577 E28.15404
G1 X199.825 Y123.695 E28.17441
G1 X199.283 Y123.77 E28.19261
G1 X198.796 Y123.809 E28.20886
G1 X198.496 Y123.823 E28.21885
G1 X197.427 Y123.841 E28.25441
G1 X48.865 Y123.84 E33.1956
G1 X48.289 Y123.832 E33.21476
G1 X47.475 Y123.794 E33.24186
G1 X46.906 Y123.731 E33.2609
G1 X46.303 Y123.628 E33.28125
G1 X45.756 Y123.502 E33.29992
G1 X45.202 Y123.339 E33.31913
G1 X44.647 Y123.138 E33.33876
G1 X44.073 Y122.889 E33.35957
G1 X43.554 Y122.625 E33.37894
G1 X43.046 Y122.327 E33.39852
G1 X42.568 Y122.006 E33.41768
G1 X42.078 Y121.633 E33.43816
G1 X41.64 Y121.257 E33.45736
G1 X41.219 Y120.848 E33.47688
G1 X40.829 Y120.42 E33.49614
G1 X40.452 Y119.953 E33.5161
G1 X40.116 Y119.481 E33.53537
G1 X39.788 Y118.956 E33.55596
G1 X39.5 Y118.423 E33.57611
G1 X39.221 Y117.818 E33.59827
G1 X39.049 Y117.391 E33.61358
G1 X38.342 Y115.367 E33.68489
G1 X37.372 Y112.816 E33.77566
G1 X36.352 Y110.343 E33.86463
G1 X35.254 Y107.882 E33.95427
G1 X34.099 Y105.478 E34.04297
G1 X32.852 Y103.062 E34.1334
G1 X31.553 Y100.707 E34.22285
G1 X30.185 Y98.39 E34.31235
G1 X28.744 Y96.098 E34.40239
G1 X27.248 Y93.859 E34.49196
G1 X25.696 Y91.675 E34.58107
G1 X24.072 Y89.52 E34.67082
G1 X22.41 Y87.441 E34.75935
G1 X21.159 Y85.961 E34.8238
G1 X20.439 Y85.072 E34.86185
G1 X20.093 Y84.585 E34.88172
G1 X19.779 Y84.079 E34.90153
G1 X19.503 Y83.567 E34.92087
G1 X19.249 Y83.019 E34.94096
G1 X19.04 Y82.486 E34.96
G1 X18.859 Y81.93 E34.97945
G1 X18.717 Y81.387 E34.99812
G1 X18.598 Y80.793 E35.01827
G1 X18.517 Y80.205 E35.03801
G1 X18.473 Y79.611 E35.05782
G1 X18.461 Y79.331 E35.06714
G1 X18.446 Y78.355 E35.09961
G1 X18.448 Y40.792 E36.34896
G1 X18.462 Y40.002 E36.37524
G1 X18.491 Y39.423 E36.39452
G1 X18.549 Y38.879 E36.41272
G1 X18.649 Y38.275 E36.43308
G1 X18.783 Y37.693 E36.45294
G1 X18.962 Y37.09 E36.47386
G1 X19.169 Y36.527 E36.49381
G1 X19.406 Y35.987 E36.51343
G1 X19.66 Y35.488 E36.53205
G1 X19.969 Y34.961 E36.55237
G1 X20.301 Y34.468 E36.57214
G1 X20.656 Y34.005 E36.59154
G1 X21.01 Y33.594 E36.60959
G1 X21.416 Y33.173 E36.62904
G1 X21.859 Y32.768 E36.649
G1 X22.359 Y32.365 E36.67036
G1 X22.837 Y32.025 E36.68987
G0 F6000 X23.048 Y32.365
G1 F1200 X23.55 Y32.053 E36.70953
G1 X24.022 Y31.798 E36.72737
G1 X24.572 Y31.543 E36.74754
G1 X25.061 Y31.351 E36.76501
G1 X25.617 Y31.17 E36.78446
G1 X26.115 Y31.04 E36.80158
G1 X26.709 Y30.921 E36.82173
G1 X27.249 Y30.847 E36.83985
G1 X27.845 Y30.803 E36.85973
G1 X28.098 Y30.792 E36.86815
G1 X29.042 Y30.777 E36.89956
G1 X210.624 Y30.778 E42.939
G1 X211.243 Y30.787 E42.95959
G1 X211.992 Y30.823 E42.98453
G1 X212.497 Y30.878 E43.00142
G1 X213.105 Y30.98 E43.02193
G1 X213.629 Y31.101 E43.03982
G1 X214.195 Y31.269 E43.05945
G1 X214.691 Y31.449 E43.077
G1 X215.264 Y31.697 E43.09777
G1 X215.745 Y31.941 E43.11571
G1 X216.237 Y32.23 E43.13469
G1 X216.665 Y32.517 E43.15183
G1 X217.152 Y32.886 E43.17215
G1 X217.562 Y33.238 E43.19012
G1 X217.991 Y33.655 E43.21002
G1 X218.347 Y34.045 E43.22758
G1 X218.734 Y34.524 E43.24806
G1 X219.042 Y34.956 E43.26571
G1 X219.364 Y35.471 E43.28591
G1 X219.621 Y35.946 E43.30387
G1 X219.867 Y36.474 E43.32325
G1 X220.062 Y36.966 E43.34085
G1 X220.256 Y37.56 E43.36163
G1 X220.39 Y38.076 E43.37937
G1 X220.506 Y38.665 E43.39933
G1 X220.577 Y39.186 E43.41682
G1 X220.618 Y39.733 E43.43507
G1 X220.629 Y39.986 E43.44349
G1 X220.646 Y40.992 E43.47695
G1 X220.645 Y78.553 E44.72624
G1 X220.632 Y79.283 E44.75052
G1 X220.6 Y79.927 E44.77197
G1 X220.543 Y80.446 E44.78933
G1 X220.441 Y81.046 E44.80957
G1 X220.323 Y81.553 E44.82689
G1 X220.16 Y82.106 E44.84606
G1 X219.979 Y82.606 E44.86375
G1 X219.732 Y83.178 E44.88447
G1 X219.499 Y83.642 E44.90174
G1 X218.869 Y84.728 E44.9435
G1 X217.552 Y87.076 E45.03304
G1 X216.279 Y89.502 E45.12416
G1 X215.111 Y91.889 E45.21255
G1 X213.978 Y94.385 E45.30372
G1 X212.939 Y96.853 E45.39278
G1 X211.951 Y99.403 E45.48374
G1 X210.866 Y102.482 E45.59232
G1 X210.062 Y105.014 E45.68068
G1 X209.307 Y107.647 E45.77178
G1 X208.642 Y110.24 E45.86082
G1 X208.042 Y112.885 E45.95102
G1 X207.415 Y116.043 E46.05811
G1 X207.321 Y116.426 E46.07123
G1 X207.165 Y116.957 E46.08963
G1 X206.986 Y117.453 E46.10717
G1 X206.731 Y118.047 E46.12867
G1 X206.483 Y118.537 E46.14694
G1 X206.202 Y119.016 E46.16541
G1 X205.911 Y119.452 E46.18284
G1 X205.516 Y119.972 E46.20456
G1 X205.161 Y120.383 E46.22263
G1 X204.752 Y120.802 E46.2421
G1 X204.363 Y121.156 E46.2596
G1 X203.911 Y121.52 E46.2789
G1 X203.494 Y121.817 E46.29593
G1 X202.963 Y122.151 E46.31679
G1 X202.479 Y122.415 E46.33513
G1 X201.947 Y122.663 E46.35465
G1 X201.456 Y122.857 E46.37221
G1 X200.869 Y123.049 E46.39275
G1 X200.349 Y123.185 E46.41063
G1 X199.748 Y123.303 E46.431
G1 X199.251 Y123.371 E46.44768
G1 X198.764 Y123.41 E46.46393
G1 X198.489 Y123.423 E46.47309
G1 X197.427 Y123.441 E46.50842
G1 X48.871 Y123.44 E51.44941
G1 X48.137 Y123.427 E51.47383
G1 X47.495 Y123.395 E51.4952
G1 X46.973 Y123.337 E51.51267
G1 X46.37 Y123.234 E51.53302
G1 X45.869 Y123.118 E51.55012
G1 X45.315 Y122.955 E51.56933
G1 X44.806 Y122.771 E51.58733
G1 X44.232 Y122.522 E51.60814
G1 X43.757 Y122.28 E51.62587
G1 X43.249 Y121.982 E51.64546
G1 X42.81 Y121.688 E51.66304
G1 X42.32 Y121.315 E51.68352
G1 X41.919 Y120.97 E51.70111
G1 X41.498 Y120.561 E51.72063
G1 X41.14 Y120.169 E51.73829
G1 X40.763 Y119.702 E51.75825
G1 X40.455 Y119.269 E51.77593
G1 X40.127 Y118.744 E51.79652
G1 X39.863 Y118.256 E51.81497
G1 X39.584 Y117.651 E51.83713
G1 X39.426 Y117.259 E51.85119
G1 X38.71 Y115.209 E51.92341
G1 X37.757 Y112.701 E52.01264
G1 X36.71 Y110.164 E52.10393
G1 X35.622 Y107.725 E52.19276
G1 X34.436 Y105.258 E52.2838
G1 X33.209 Y102.879 E52.37283
G1 X31.897 Y100.501 E52.46316
G1 X30.535 Y98.194 E52.55226
G1 X29.083 Y95.884 E52.64301
G1 X27.579 Y93.634 E52.73303
G1 X26.025 Y91.448 E52.82223
G1 X24.401 Y89.292 E52.91201
G1 X22.693 Y87.157 E53.00295
G1 X21.465 Y85.703 E53.06625
G1 X20.75 Y84.82 E53.10404
G1 X20.433 Y84.374 E53.12224
G1 X20.119 Y83.868 E53.14204
G1 X19.866 Y83.398 E53.1598
G1 X19.612 Y82.85 E53.17989
G1 X19.42 Y82.362 E53.19733
G1 X19.239 Y81.806 E53.21678
G1 X19.109 Y81.308 E53.23389
G1 X18.99 Y80.714 E53.25404
G1 X18.916 Y80.175 E53.27214
G1 X18.872 Y79.581 E53.29195
G1 X18.861 Y79.324 E53.30051
G1 X18.846 Y78.355 E53.33274
G1 X18.847 Y40.798 E54.58189
G1 X18.856 Y40.178 E54.60251
G1 X18.891 Y39.443 E54.62699
G1 X18.944 Y38.944 E54.64368
G1 X19.044 Y38.34 E54.66404
G1 X19.167 Y37.807 E54.68223
G1 X19.346 Y37.204 E54.70315
G1 X19.535 Y36.688 E54.72143
G1 X19.772 Y36.148 E54.74104
G1 X20.005 Y35.69 E54.75814
G1 X20.314 Y35.163 E54.77845
G1 X20.618 Y34.712 E54.79654
G1 X20.973 Y34.249 E54.81595
G1 X21.298 Y33.872 E54.8325
G1 X21.704 Y33.451 E54.85196
G1 X22.11 Y33.079 E54.87027
G1 X22.61 Y32.676 E54.89163
G1 X23.048 Y32.365 E54.9095
G0 F6000 X23.26 Y32.705
G1 F1200 X23.762 Y32.393 E54.92916
G1 X24.19 Y32.161 E54.94535
G1 X24.74 Y31.906 E54.96551
G1 X25.185 Y31.731 E54.98142
G1 X25.741 Y31.55 E55.00087
G1 X26.193 Y31.432 E55.0164
G1 X26.787 Y31.313 E55.03655
G1 X27.278 Y31.246 E55.05303
G1 X27.983 Y31.194 E55.07655
G1 X29.042 Y31.177 E55.11177
G1 X210.618 Y31.178 E61.15102
G1 X211.237 Y31.187 E61.17161
G1 X211.972 Y31.222 E61.19608
G1 X212.431 Y31.272 E61.21144
G1 X213.039 Y31.374 E61.23194
G1 X213.515 Y31.484 E61.24819
G1 X214.081 Y31.652 E61.26783
G1 X214.532 Y31.816 E61.28379
G1 X215.105 Y32.064 E61.30455
G1 X215.542 Y32.286 E61.32086
G1 X216.034 Y32.575 E61.33984
G1 X216.424 Y32.836 E61.35544
G1 X216.911 Y33.205 E61.37577
G1 X217.283 Y33.525 E61.39209
G1 X217.712 Y33.942 E61.41199
G1 X218.035 Y34.296 E61.42792
G1 X218.422 Y34.775 E61.44841
G1 X218.703 Y35.168 E61.46447
G1 X219.025 Y35.683 E61.48468
G1 X219.259 Y36.115 E61.50102
G1 X219.505 Y36.643 E61.52039
G1 X219.681 Y37.09 E61.53637
G1 X219.875 Y37.684 E61.55715
G1 X219.998 Y38.153 E61.57328
G1 X220.114 Y38.742 E61.59325
G1 X220.178 Y39.216 E61.60915
G1 X220.219 Y39.763 E61.6274
G1 X220.246 Y40.992 E61.66828
G1 X220.245 Y78.548 E62.9174
G1 X220.237 Y79.121 E62.93646
G1 X220.2 Y79.908 E62.96267
G1 X220.148 Y80.379 E62.97843
G1 X220.046 Y80.979 E62.99867
G1 X219.94 Y81.44 E63.0144
G1 X219.777 Y81.993 E63.03358
G1 X219.612 Y82.448 E63.04968
G1 X219.365 Y83.02 E63.0704
G1 X219.153 Y83.441 E63.08608
G1 X218.552 Y84.477 E63.12591
