;FLAVOR:Marlin
;TIME:4239
;Filament used: 2.62082m
;Layer height: 0.2
;MINX:73.3
;MINY:64.762
;MINZ:0.2
;MAXX:161.7
;MAXY:94.162
;MAXZ:19
;Generated with Cura_SteamEngine 5.2.1
M140 S60
M105
M190 S60
M104 S232
M105
M109 S232
M82 ;absolute extrusion mode
; Ender 3 Custom Start G-code
G92 E0 ; Reset Extruder
G28 ; Home all axes
G1 Z2.0 F3000 ; Move Z Axis up little to prevent scratching of Heat Bed
G1 X0.1 Y20 Z0.3 F5000.0 ; Move to start position
G1 X0.1 Y200.0 Z0.3 F1500.0 E15 ; Draw the first line
G1 X0.4 Y200.0 Z0.3 F5000.0 ; Move to side a little
G1 X0.4 Y20 Z0.3 F1500.0 E30 ; Draw the second line
G92 E0 ; Reset Extruder
G1 Z2.0 F3000 ; Move Z Axis up little to prevent scratching of Heat Bed
G1 X5 Y20 Z0.3 F5000.0 ; Move over to prevent blob squish
G92 E0
G92 E0
G1 F2700 E-5
;LAYER_COUNT:95
;LAYER:0
M107
G0 F6000 X74.732 Y66.397 Z0.2
;TYPE:SKIRT
G1 F2700 E0
G1 F1200 X75.203 Y65.957 E0.02144
G1 X75.726 Y65.579 E0.0429
G1 X76.29 Y65.268 E0.06432
G1 X76.889 Y65.03 E0.08576
G1 X77.513 Y64.867 E0.10721
G1 X78.363 Y64.773 E0.13565
G1 X78.83 Y64.762 E0.15119
G1 X155.867 Y64.763 E2.71345
G1 X156.565 Y64.773 E2.73667
G1 X157.208 Y64.822 E2.75812
G1 X157.84 Y64.95 E2.77957
G1 X158.451 Y65.156 E2.80101
G1 X159.032 Y65.435 E2.82245
G1 X159.574 Y65.784 E2.84389
G1 X160.068 Y66.198 E2.86533
G1 X160.508 Y66.67 E2.88679
G1 X160.886 Y67.192 E2.90822
G1 X161.196 Y67.757 E2.92966
G1 X161.434 Y68.356 E2.9511
G1 X161.596 Y68.98 E2.97254
G1 X161.689 Y69.826 E3.00085
G1 X161.7 Y70.292 E3.01635
G1 X161.7 Y88.29 E3.61497
G1 X161.691 Y89.017 E3.63915
G1 X161.643 Y89.66 E3.66059
G1 X161.516 Y90.292 E3.68203
G1 X161.311 Y90.904 E3.7035
G1 X161.033 Y91.485 E3.72492
G1 X160.685 Y92.028 E3.74637
G1 X160.272 Y92.523 E3.76782
G1 X159.801 Y92.963 E3.78925
G1 X159.279 Y93.342 E3.81071
G1 X158.715 Y93.653 E3.83213
G1 X158.116 Y93.892 E3.85358
G1 X157.493 Y94.056 E3.87501
G1 X156.637 Y94.151 E3.90365
G1 X156.17 Y94.162 E3.91919
G1 X79.14 Y94.162 E6.48122
G1 X78.442 Y94.153 E6.50444
G1 X77.799 Y94.104 E6.52588
G1 X77.167 Y93.977 E6.54733
G1 X76.556 Y93.772 E6.56876
G1 X75.975 Y93.494 E6.59018
G1 X75.432 Y93.145 E6.61165
G1 X74.937 Y92.732 E6.63309
G1 X74.497 Y92.261 E6.65453
G1 X74.118 Y91.739 E6.67599
G1 X73.807 Y91.175 E6.69741
G1 X73.569 Y90.576 E6.71885
G1 X73.406 Y89.952 E6.7403
G1 X73.311 Y89.093 E6.76904
G1 X73.3 Y88.62 E6.78478
G1 X73.3 Y70.566 E7.38526
G1 X73.309 Y69.901 E7.40738
G1 X73.358 Y69.258 E7.42882
G1 X73.486 Y68.626 E7.45027
G1 X73.691 Y68.015 E7.47171
G1 X73.97 Y67.434 E7.49314
G1 X74.319 Y66.891 E7.51461
G1 X74.732 Y66.397 E7.53603
G0 F6000 X75.125 Y66.567
G1 F1200 X75.591 Y66.16 E7.55661
G1 X76.106 Y65.816 E7.57721
G1 X76.661 Y65.541 E7.59781
G1 X77.247 Y65.34 E7.61841
G1 X77.854 Y65.216 E7.63902
G1 X78.374 Y65.173 E7.65637
G1 X78.83 Y65.162 E7.67154
G1 X155.862 Y65.162 E10.23364
G1 X156.56 Y65.172 E10.25686
G1 X157.177 Y65.221 E10.27744
G1 X157.783 Y65.349 E10.29804
G1 X158.368 Y65.554 E10.31866
G1 X158.921 Y65.833 E10.33926
G1 X159.434 Y66.18 E10.35986
G1 X159.898 Y66.59 E10.38045
G1 X160.305 Y67.057 E10.40106
G1 X160.648 Y67.572 E10.42164
G1 X160.923 Y68.128 E10.44227
G1 X161.123 Y68.714 E10.46286
G1 X161.247 Y69.321 E10.48347
G1 X161.289 Y69.837 E10.50069
G1 X161.3 Y70.292 E10.51583
G1 X161.3 Y88.285 E11.11428
G1 X161.291 Y89.012 E11.13846
G1 X161.243 Y89.63 E11.15907
G1 X161.116 Y90.236 E11.17967
G1 X160.913 Y90.821 E11.20026
G1 X160.635 Y91.375 E11.22088
G1 X160.289 Y91.888 E11.24146
G1 X159.879 Y92.353 E11.26208
G1 X159.413 Y92.761 E11.28268
G1 X158.899 Y93.105 E11.30325
G1 X158.344 Y93.381 E11.32387
G1 X157.758 Y93.583 E11.34448
G1 X157.152 Y93.707 E11.36506
G1 X156.626 Y93.751 E11.38261
G1 X156.17 Y93.762 E11.39778
G1 X79.145 Y93.762 E13.95964
G1 X78.447 Y93.753 E13.98286
G1 X77.83 Y93.705 E14.00345
G1 X77.223 Y93.578 E14.02407
G1 X76.639 Y93.374 E14.04465
G1 X76.085 Y93.096 E14.06526
G1 X75.572 Y92.749 E14.08586
G1 X75.107 Y92.34 E14.10646
G1 X74.7 Y91.873 E14.12706
G1 X74.355 Y91.359 E14.14765
G1 X74.08 Y90.804 E14.16825
G1 X73.879 Y90.218 E14.18886
G1 X73.754 Y89.611 E14.20947
G1 X73.711 Y89.083 E14.22709
G1 X73.7 Y88.62 E14.24249
G1 X73.7 Y70.571 E14.84281
G1 X73.709 Y69.906 E14.86493
G1 X73.758 Y69.289 E14.88551
G1 X73.885 Y68.682 E14.90614
G1 X74.09 Y68.098 E14.92672
G1 X74.368 Y67.544 E14.94734
G1 X74.715 Y67.031 E14.96794
G1 X75.125 Y66.567 E14.98853
G0 F6000 X75.516 Y66.746
G1 F1200 X75.977 Y66.373 E15.00826
G1 X76.484 Y66.065 E15.02799
G1 X77.027 Y65.828 E15.04769
G1 X77.598 Y65.666 E15.06743
G1 X78.386 Y65.573 E15.09383
G1 X78.83 Y65.562 E15.1086
G1 X155.856 Y65.562 E17.67049
G1 X156.554 Y65.572 E17.69371
G1 X157.145 Y65.621 E17.71343
G1 X157.724 Y65.748 E17.73315
G1 X158.281 Y65.952 E17.75288
G1 X158.805 Y66.23 E17.77261
G1 X159.287 Y66.575 E17.79232
G1 X159.719 Y66.982 E17.81206
G1 X160.091 Y67.443 E17.83177
G1 X160.399 Y67.95 E17.8515
G1 X160.635 Y68.494 E17.87122
G1 X160.796 Y69.064 E17.89092
G1 X160.889 Y69.848 E17.91718
G1 X160.9 Y70.292 E17.93195
G1 X160.9 Y88.28 E18.53023
G1 X160.891 Y89.007 E18.55442
G1 X160.843 Y89.599 E18.57417
G1 X160.717 Y90.178 E18.59388
G1 X160.514 Y90.735 E18.6136
G1 X160.238 Y91.26 E18.63332
G1 X159.894 Y91.743 E18.65305
G1 X159.488 Y92.175 E18.67276
G1 X159.027 Y92.548 E18.69249
G1 X158.521 Y92.857 E18.71221
G1 X157.978 Y93.094 E18.73191
G1 X157.407 Y93.257 E18.75166
G1 X156.614 Y93.351 E18.77822
G1 X156.17 Y93.362 E18.793
G1 X79.15 Y93.362 E21.35469
G1 X78.452 Y93.353 E21.37791
G1 X77.861 Y93.305 E21.39763
G1 X77.282 Y93.178 E21.41735
G1 X76.725 Y92.975 E21.43706
G1 X76.2 Y92.699 E21.45679
G1 X75.718 Y92.354 E21.47651
G1 X75.286 Y91.948 E21.49622
G1 X74.912 Y91.487 E21.51597
G1 X74.604 Y90.981 E21.53567
G1 X74.367 Y90.437 E21.55541
G1 X74.205 Y89.867 E21.57512
G1 X74.111 Y89.072 E21.60174
G1 X74.1 Y88.62 E21.61678
G1 X74.1 Y70.576 E22.21693
G1 X74.109 Y69.911 E22.23905
G1 X74.157 Y69.32 E22.25877
G1 X74.284 Y68.741 E22.27848
G1 X74.488 Y68.184 E22.29821
G1 X74.765 Y67.66 E22.31793
G1 X75.11 Y67.178 E22.33764
G1 X75.516 Y66.746 E22.35736
G0 F6000 X75.906 Y66.934
G1 F1200 X76.36 Y66.597 E22.37616
G1 X76.857 Y66.328 E22.39496
G1 X77.387 Y66.131 E22.41377
G1 X77.94 Y66.012 E22.43258
G1 X78.397 Y65.973 E22.44783
G1 X78.83 Y65.962 E22.46224
G1 X155.85 Y65.962 E25.02394
G1 X156.548 Y65.972 E25.04715
G1 X157.112 Y66.02 E25.06598
G1 X157.662 Y66.147 E25.08476
G1 X158.19 Y66.351 E25.10358
G1 X158.684 Y66.626 E25.12239
G1 X159.133 Y66.969 E25.14118
G1 X159.53 Y67.371 E25.15997
G1 X159.867 Y67.826 E25.1788
G1 X160.135 Y68.323 E25.19758
G1 X160.331 Y68.853 E25.21638
G1 X160.451 Y69.406 E25.2352
G1 X160.489 Y69.86 E25.25035
G1 X160.5 Y70.292 E25.26473
G1 X160.5 Y88.276 E25.86288
G1 X160.491 Y89.003 E25.88706
G1 X160.444 Y89.566 E25.90585
G1 X160.318 Y90.117 E25.92465
G1 X160.116 Y90.645 E25.94345
G1 X159.841 Y91.139 E25.96226
G1 X159.499 Y91.589 E25.98105
G1 X159.097 Y91.987 E25.99987
G1 X158.644 Y92.324 E26.01865
G1 X158.147 Y92.594 E26.03746
G1 X157.617 Y92.791 E26.05627
G1 X157.065 Y92.912 E26.07506
G1 X156.603 Y92.951 E26.09048
G1 X156.17 Y92.962 E26.10489
G1 X79.155 Y92.962 E28.66642
G1 X78.457 Y92.953 E28.68964
G1 X77.894 Y92.905 E28.70843
G1 X77.343 Y92.779 E28.72723
G1 X76.815 Y92.577 E28.74603
G1 X76.321 Y92.302 E28.76484
G1 X75.871 Y91.96 E28.78363
G1 X75.473 Y91.558 E28.80245
G1 X75.137 Y91.104 E28.82124
G1 X74.867 Y90.607 E28.84005
G1 X74.67 Y90.077 E28.85885
G1 X74.55 Y89.525 E28.87764
G1 X74.51 Y89.061 E28.89313
G1 X74.501 Y88.728 E28.90421
G1 X74.5 Y70.582 E29.50775
G1 X74.509 Y69.917 E29.52987
G1 X74.557 Y69.354 E29.54866
G1 X74.683 Y68.803 E29.56746
G1 X74.886 Y68.275 E29.58628
G1 X75.162 Y67.781 E29.6051
G1 X75.504 Y67.331 E29.6239
G1 X75.906 Y66.934 E29.64269
G0 F6000 X76.294 Y67.133
G1 F1200 X76.741 Y66.835 E29.66056
G1 X77.226 Y66.607 E29.67838
G1 X77.74 Y66.454 E29.69622
G1 X78.408 Y66.372 E29.7186
G1 X78.729 Y66.363 E29.72928
G1 X155.845 Y66.362 E32.29417
G1 X156.543 Y66.372 E32.31739
G1 X157.077 Y66.42 E32.33522
G1 X157.598 Y66.546 E32.35305
G1 X158.095 Y66.749 E32.37091
G1 X158.556 Y67.023 E32.38874
G1 X158.971 Y67.362 E32.40657
G1 X159.331 Y67.76 E32.42442
G1 X159.628 Y68.206 E32.44224
G1 X159.856 Y68.692 E32.46009
G1 X160.008 Y69.206 E32.47792
G1 X160.09 Y69.871 E32.50021
G1 X160.099 Y70.191 E32.51085
G1 X160.1 Y88.271 E33.1122
G1 X160.091 Y88.998 E33.13638
G1 X160.044 Y89.532 E33.15421
G1 X159.919 Y90.053 E33.17203
G1 X159.717 Y90.55 E33.18987
G1 X159.444 Y91.012 E33.20772
G1 X159.106 Y91.428 E33.22555
G1 X158.709 Y91.789 E33.2434
G1 X158.263 Y92.087 E33.26124
G1 X157.778 Y92.315 E33.27906
G1 X157.264 Y92.469 E33.29691
G1 X156.592 Y92.552 E33.31943
G1 X156.271 Y92.561 E33.33011
G1 X79.161 Y92.562 E35.8948
G1 X78.463 Y92.553 E35.91802
G1 X77.928 Y92.506 E35.93588
G1 X77.407 Y92.38 E35.95371
G1 X76.91 Y92.178 E35.97155
G1 X76.449 Y91.905 E35.98937
G1 X76.033 Y91.566 E36.00722
G1 X75.672 Y91.17 E36.02504
G1 X75.374 Y90.724 E36.04288
G1 X75.146 Y90.238 E36.06074
G1 X74.993 Y89.724 E36.07857
G1 X74.91 Y89.05 E36.10116
G1 X74.901 Y88.717 E36.11224
G1 X74.9 Y70.587 E36.71525
G1 X74.909 Y69.922 E36.73737
G1 X74.957 Y69.388 E36.7552
G1 X75.083 Y68.867 E36.77303
G1 X75.285 Y68.37 E36.79087
G1 X75.558 Y67.909 E36.80869
G1 X75.897 Y67.493 E36.82654
G1 X76.294 Y67.133 E36.84436
G0 F6000 X76.68 Y67.345
G1 F1200 X77.117 Y67.09 E36.86119
G1 X77.588 Y66.906 E36.87801
G1 X78.082 Y66.8 E36.89481
G1 X78.419 Y66.772 E36.90606
G1 X78.74 Y66.763 E36.91674
G1 X155.839 Y66.762 E39.48107
G1 X156.537 Y66.772 E39.50428
G1 X157.04 Y66.819 E39.52109
G1 X157.53 Y66.945 E39.53791
G1 X157.994 Y67.147 E39.55475
G1 X158.42 Y67.419 E39.57156
G1 X158.798 Y67.754 E39.58836
G1 X159.118 Y68.145 E39.60516
G1 X159.373 Y68.582 E39.62199
G1 X159.556 Y69.053 E39.63879
G1 X159.663 Y69.547 E39.65561
G1 X159.69 Y69.882 E39.66678
G1 X159.699 Y70.202 E39.67743
G1 X159.7 Y88.266 E40.27824
G1 X159.691 Y88.993 E40.30242
G1 X159.645 Y89.496 E40.31922
G1 X159.52 Y89.986 E40.33604
G1 X159.319 Y90.45 E40.35286
G1 X159.048 Y90.877 E40.36968
G1 X158.713 Y91.256 E40.38651
G1 X158.323 Y91.577 E40.40331
G1 X157.887 Y91.833 E40.42012
G1 X157.416 Y92.016 E40.43693
G1 X156.922 Y92.124 E40.45375
G1 X156.581 Y92.152 E40.46513
G1 X156.26 Y92.161 E40.47581
G1 X79.166 Y92.162 E43.03997
G1 X78.468 Y92.153 E43.06318
G1 X77.964 Y92.106 E43.08002
G1 X77.474 Y91.981 E43.09684
G1 X77.01 Y91.78 E43.11366
G1 X76.584 Y91.509 E43.13045
G1 X76.205 Y91.174 E43.14727
G1 X75.884 Y90.783 E43.1641
G1 X75.629 Y90.347 E43.1809
G1 X75.445 Y89.876 E43.19772
G1 X75.338 Y89.382 E43.21453
G1 X75.31 Y89.039 E43.22598
G1 X75.301 Y88.706 E43.23706
G1 X75.3 Y70.593 E43.8395
G1 X75.309 Y69.928 E43.86162
G1 X75.356 Y69.424 E43.87845
G1 X75.482 Y68.935 E43.89525
G1 X75.683 Y68.471 E43.91207
G1 X75.954 Y68.044 E43.92889
G1 X76.289 Y67.666 E43.94569
G1 X76.68 Y67.345 E43.96251
G1 F2700 E38.96251
;MESH:Breakout v2.stl
G0 F6000 X78.914 Y69.297
G0 X79.101 Y88.361
;TYPE:WALL-INNER
G1 F2700 E43.96251
G1 F1200 X155.9 Y88.362 E46.51686
G1 X155.9 Y70.562 E47.10889
G1 X79.1 Y70.562 E49.66327
G1 X79.101 Y88.361 E50.25526
G0 F6000 X78.701 Y88.761
;TYPE:WALL-OUTER
G1 F1200 X156.3 Y88.762 E52.83622
G1 X156.3 Y70.162 E53.45485
G1 X78.7 Y70.162 E56.03584
G1 X78.701 Y88.761 E56.65445
G1 F2700 E51.65445
G0 F6000 X78.97 Y88.492
G0 X95.506 Y88.542
G0 X95.382 Y82.488
G0 X95.334 Y82.31
;TYPE:WALL-INNER
G1 F2700 E56.65445
G1 F1200 X94.717 Y82.183 E56.6754
G1 X94.144 Y81.887 E56.69685
G1 X93.695 Y81.472 E56.71718
G1 X93.353 Y80.925 E56.73864
G1 X93.172 Y80.315 E56.7598
G1 X93.166 Y79.723 E56.7795
G1 X93.174 Y79.617 E56.78303
G1 X93.343 Y79.028 E56.80341
G1 X93.671 Y78.474 E56.82483
G1 X94.161 Y78.027 E56.84689
G1 X94.689 Y77.753 E56.86667
G1 X95.039 Y77.656 E56.87875
G1 X95.617 Y77.616 E56.89802
G1 X95.997 Y77.66 E56.91074
G1 X96.571 Y77.865 E56.93102
G1 X96.919 Y78.091 E56.94482
G1 X97.321 Y78.473 E56.96326
G1 X97.651 Y79.003 E56.98403
G1 X97.835 Y79.652 E57.00646
G1 X97.829 Y80.287 E57.02759
G1 X97.662 Y80.897 E57.04862
G1 X97.315 Y81.463 E57.0707
G1 X96.858 Y81.886 E57.09141
G1 X96.313 Y82.169 E57.11184
G1 X95.961 Y82.267 E57.12399
G1 X95.334 Y82.31 E57.14489
G0 F6000 X95.892 Y81.873
;TYPE:WALL-OUTER
G1 F1200 X95.382 Y81.907 E57.16189
G1 X94.854 Y81.803 E57.17979
G1 X94.375 Y81.556 E57.19772
G1 X93.993 Y81.2 E57.21509
G1 X93.711 Y80.743 E57.23295
G1 X93.568 Y80.238 E57.2504
G1 X93.566 Y79.722 E57.26757
G1 X93.573 Y79.666 E57.26944
G1 X93.71 Y79.183 E57.28614
G1 X93.985 Y78.729 E57.3038
G1 X94.375 Y78.369 E57.32145
G1 X94.853 Y78.123 E57.33933
G1 X95.108 Y78.05 E57.34815
G1 X95.617 Y78.016 E57.36512
G1 X95.884 Y78.049 E57.37407
G1 X96.374 Y78.219 E57.39132
G1 X96.647 Y78.385 E57.40194
G1 X97.01 Y78.725 E57.41849
G1 X97.287 Y79.175 E57.43606
G1 X97.432 Y79.685 E57.4537
G1 X97.433 Y80.231 E57.47186
G1 X97.29 Y80.74 E57.48944
G1 X97.015 Y81.192 E57.50704
G1 X96.624 Y81.557 E57.52483
G1 X96.146 Y81.801 E57.54268
G1 X95.892 Y81.873 E57.55146
G1 F2700 E52.55146
G0 F6000 X95.973 Y82.162
G0 X97.467 Y81.557
G0 X109.543 Y81.566
G0 X111.334 Y82.31
;TYPE:WALL-INNER
G1 F2700 E57.55146
G1 F1200 X110.717 Y82.183 E57.57241
G1 X110.144 Y81.887 E57.59386
G1 X109.695 Y81.472 E57.6142
G1 X109.353 Y80.925 E57.63565
G1 X109.172 Y80.315 E57.65682
G1 X109.166 Y79.723 E57.67651
G1 X109.171 Y79.636 E57.67941
G1 X109.343 Y79.016 E57.70081
G1 X109.672 Y78.473 E57.72192
G1 X110.161 Y78.027 E57.74394
G1 X110.689 Y77.753 E57.76372
G1 X111.039 Y77.656 E57.7758
G1 X111.617 Y77.616 E57.79507
G1 X111.997 Y77.66 E57.80779
G1 X112.571 Y77.865 E57.82807
G1 X112.919 Y78.091 E57.84187
G1 X113.321 Y78.473 E57.86031
G1 X113.645 Y78.992 E57.88066
G1 X113.833 Y79.635 E57.90294
G1 X113.832 Y80.298 E57.925
G1 X113.65 Y80.917 E57.94645
G1 X113.315 Y81.463 E57.96776
G1 X112.858 Y81.886 E57.98847
G1 X112.313 Y82.169 E58.0089
G1 X111.961 Y82.267 E58.02105
G1 X111.334 Y82.31 E58.04195
G0 F6000 X112.146 Y81.801
;TYPE:WALL-OUTER
G1 F1200 X111.892 Y81.873 E58.05073
G1 X111.382 Y81.907 E58.06773
G1 X110.854 Y81.803 E58.08563
G1 X110.375 Y81.556 E58.10356
G1 X109.993 Y81.2 E58.12093
G1 X109.711 Y80.743 E58.13879
G1 X109.568 Y80.238 E58.15624
G1 X109.566 Y79.722 E58.17341
G1 X109.567 Y79.692 E58.1744
G1 X109.709 Y79.184 E58.19195
G1 X109.985 Y78.729 E58.20965
G1 X110.375 Y78.369 E58.2273
G1 X110.853 Y78.123 E58.24518
G1 X111.108 Y78.05 E58.254
G1 X111.617 Y78.016 E58.27097
G1 X111.884 Y78.049 E58.27992
G1 X112.374 Y78.219 E58.29717
G1 X112.647 Y78.385 E58.3078
G1 X113.01 Y78.725 E58.32434
G1 X113.287 Y79.176 E58.34194
G1 X113.432 Y79.693 E58.3598
G1 X113.434 Y80.219 E58.3773
G1 X113.291 Y80.74 E58.39526
G1 X113.015 Y81.192 E58.41288
G1 X112.624 Y81.557 E58.43067
G1 X112.146 Y81.801 E58.44852
G0 F6000 X112.227 Y82.09
G0 X111.112 Y82.367
G0 X110.612 Y82.531
;TYPE:SKIN
G1 F1200 X109.934 Y82.183 E58.47387
G1 X109.417 Y81.708 E58.49722
G1 X109.007 Y81.052 E58.52295
G1 X108.809 Y80.342 E58.54746
G1 X108.806 Y79.635 E58.57098
G1 X108.807 Y79.606 E58.57194
G1 X109.005 Y78.88 E58.59697
G1 X109.413 Y78.221 E58.62275
G1 X109.928 Y77.743 E58.64612
G1 X110.542 Y77.423 E58.66915
G1 X110.986 Y77.297 E58.6845
G1 X111.617 Y77.256 E58.70553
G1 X112.101 Y77.313 E58.72174
G1 X112.744 Y77.545 E58.74448
G1 X113.144 Y77.812 E58.76047
G1 X113.582 Y78.216 E58.78029
G1 X113.993 Y78.872 E58.80604
G1 X114.192 Y79.59 E58.83082
G1 X114.191 Y80.321 E58.85513
G1 X113.999 Y81.039 E58.87985
G1 X113.612 Y81.68 E58.90476
G1 X113.075 Y82.178 E58.92912
G1 X112.418 Y82.517 E58.95371
G1 X112.014 Y82.626 E58.96762
G1 X111.323 Y82.671 E58.99065
G1 X110.612 Y82.531 E59.01476
G1 F2700 E54.01476
G0 F6000 X111.112 Y82.367
G0 X109.543 Y81.566
G0 X97.467 Y81.557
G0 X94.612 Y82.531
G1 F2700 E59.01476
G1 F1200 X93.934 Y82.183 E59.0401
G1 X93.417 Y81.708 E59.06346
G1 X93 Y81.042 E59.08959
G1 X92.813 Y80.343 E59.11366
G1 X92.807 Y80.29 E59.11543
G1 X92.81 Y79.573 E59.13928
G1 X93.004 Y78.879 E59.16325
G1 X93.393 Y78.238 E59.18818
G1 X93.928 Y77.741 E59.21247
G1 X94.542 Y77.423 E59.23547
G1 X94.986 Y77.297 E59.25082
G1 X95.617 Y77.256 E59.27185
G1 X96.101 Y77.313 E59.28806
G1 X96.744 Y77.545 E59.3108
G1 X97.144 Y77.812 E59.32679
G1 X97.582 Y78.216 E59.34661
